app/dist/common/images/healthstream.svg

<svg height="18" viewBox="0 0 18 18" width="18" xmlns="http://www.w3.org/2000/svg"><path d="m0 0h18v18h-18z" fill="#e61b14"/><path d="m4 13v-9h2v1h-1v8h1v1h-2zm10 0v-9h-2v1h1v8h-1v1h2zm-6-6h-1v4h1v-1.5h2v1.5h1v-4h-1v1.5h-2z" fill="#fff"/></svg>

<!-- by TradingView --><svg width="18" height="18" viewBox="0 0 18 18" xmlns="http://www.w3.org/2000/svg"><path fill="#E61B14" d="M0 0h18v18H0z"/><path d="M4 13V4h2v1H5v8h1v1H4v-1Zm10 0V4h-2v1h1v8h-1v1h2v-1ZM8 7H7v4h1V9.5h2V11h1V7h-1v1.5H8V7Z" fill="#fff"/></svg>
